**kern	**silbe	**harmony	**phrase	**leadinstrument	**rhyme	**timestamp	**harte
*ICvox	*	*M4/4	*	*	*	*	*M4/4
*VRlead	*	*	*	*	*	*	*
*Hstimme	*	*	*	*	*	*	*
*E:	*	*E:	*	*	*	*	*E:
*M4/4	*	*	*	*	*	*	*
*clefG2	*	*	*	*	*	*	*
r;	.	1r;	.	r	.	0	N.C.
=1	=1	=1	=1	=1	=1	=1	=1
*>Letter>A	*>Letter>A	*>Letter>A	*>Letter>A	*>Letter>A	*>Letter>A	*>Letter>A	*>Letter>A
*>Label>Intro	*>Label>Intro	*>Label>Intro	*>Label>Intro	*>Label>Intro	*>Label>Intro	*>Label>Intro	*>Label>Intro
1r	.	2EM	newline	guitar	.	0.789	E:maj
.	.	2C#mm	.	guitar	.	2.063	C#:min7
=2	=2	=2	=2	=2	=2	=2	=2
1r	.	2F#mm	.	guitar	.	3.336	F#:min9
.	.	2BMm	.	guitar	.	4.609	B:maj6(b7)
=3	=3	=3	=3	=3	=3	=3	=3
1r	.	2EM	newline	guitar	.	5.882	E:maj
.	.	2C#mm	.	guitar	.	7.135	C#:min7
=4	=4	=4	=4	=4	=4	=4	=4
1r	.	2F#mm	.	guitar	.	8.388	F#:min9
.	.	2BMm	.	guitar	.	9.641	B:maj6(b7)
=5	=5	=5	=5	=5	=5	=5	=5
1r	.	2EM	.	guitar	.	10.894	E:maj
.	.	2C#mm	.	guitar	.	12.147	C#:min7
=6	=6	=6	=6	=6	=6	=6	=6
1r	.	2F#mm	.	guitar	.	13.4	F#:min9
.	.	2BMm	.	guitar	.	14.653	B:maj6(b7)
=7	=7	=7	=7	=7	=7	=7	=7
*>Letter>B	*>Letter>B	*>Letter>B	*>Letter>B	*>Letter>B	*>Letter>B	*>Letter>B	*>Letter>B
*>Label>Verse	*>Label>Verse	*>Label>Verse	*>Label>Verse	*>Label>Verse	*>Label>Verse	*>Label>Verse	*>Label>Verse
8r	.	2EM	newline	voice	.	15.906	E:maj
8ee	You've	.	.	.	.	.	.
8cc#	got	.	.	.	.	.	.
8b	a	.	.	.	.	.	.
8g#	cute	2C#mm	.	voice	.	17.155	C#:min7
8b	way	.	.	.	.	.	.
8cc#	of	.	.	.	.	.	.
8g#	talk-	.	.	.	(A	.	.
=8	=8	=8	=8	=8	=8	=8	=8
8f#	_	2F#mm	.	voice	.	18.405	F#:min9
4.e	-in	.	.	.	a)	.	.
2r	.	2BMm	.	voice	.	19.655	B:maj6(b7)
=9	=9	=9	=9	=9	=9	=9	=9
8r	.	2EM	.	voice	.	20.905	E:maj
8ee	You	.	.	.	.	.	.
8cc#	got	.	.	.	.	.	.
8b	the	.	.	.	.	.	.
8g#	bet-	2C#mm	.	voice	.	22.154	C#:min7
8b	-ter	.	.	.	.	.	.
8cc#	of	.	.	.	.	.	.
[8b	me	.	.	.	B	.	.
=10	=10	=10	=10	=10	=10	=10	=10
8b]	_	2F#mm	.	voice	.	23.404	F#:min9
8r	.	.	.	.	.	.	.
4r	.	.	.	.	.	.	.
2r	.	2BMm	.	voice	.	24.654	B:maj6(b7)
=11	=11	=11	=11	=11	=11	=11	=11
8r	.	2EM	newline	voice	.	25.903	E:maj
8ee	Just	.	.	.	.	.	.
8cc#	snap	.	.	.	.	.	.
8b	your	.	.	.	.	.	.
8g#	fing-	2C#mm	.	voice	.	27.146	C#:min7
8b	-ers	.	.	.	.	.	.
16cc#	and	.	.	.	.	.	.
8.ee	I'm	.	.	.	.	.	.
=12	=12	=12	=12	=12	=12	=12	=12
8g#	walk-	2F#mm	.	voice	(A	28.39	F#:min9
8f#	_	.	.	.	.	.	.
4e	-in	.	.	.	a)	.	.
4r	.	2BMm	.	voice	.	29.633	B:maj6(b7)
16e	like	.	.	.	.	.	.
8.f#	a	.	.	.	.	.	.
=13	=13	=13	=13	=13	=13	=13	=13
16f#	dog	2EM	.	voice	.	30.876	E:maj
[16g#	_	.	.	.	.	.	.
8g#_	_	.	.	.	.	.	.
8.g#]	_	.	.	.	.	.	.
[16cc#	hang-	.	.	.	.	.	.
8cc#]	_	2C#mm	.	voice	.	32.119	C#:min7
8b	-in	.	.	.	.	.	.
16g#	on	.	.	.	.	.	.
8f#	your	.	.	.	.	.	.
[16e	lead	.	.	.	B	.	.
=14	=14	=14	=14	=14	=14	=14	=14
4e]	_	2F#mm	.	voice	.	33.362	F#:min9
4r	.	.	.	.	.	.	.
2r	.	2BMm	.	voice	.	34.605	B:maj6(b7)
=15	=15	=15	=15	=15	=15	=15	=15
*>Letter>C	*>Letter>C	*>Letter>C	*>Letter>C	*>Letter>C	*>Letter>C	*>Letter>C	*>Letter>C
*>Label>Prechorus	*>Label>Prechorus	*>Label>Prechorus	*>Label>Prechorus	*>Label>Prechorus	*>Label>Prechorus	*>Label>Prechorus	*>Label>Prechorus
8r	.	1DM	newline	voice	.	35.848	D:maj
16r	.	.	.	.	.	.	.
16A	I'm	.	.	.	.	.	.
16d	in	.	.	.	C	.	.
8d	a	.	.	.	.	.	.
[16f#	spin	.	.	.	C	.	.
16f#]	_	.	.	.	.	.	.
16f#	you	.	.	.	.	.	.
4a	know	.	.	.	.	.	.
8r	.	.	.	.	.	.	.
=16	=16	=16	=16	=16	=16	=16	=16
8e	shak-	1EM	.	voice	.	38.346	E:maj
8e	-ing	.	.	.	d	.	.
8e	on	.	.	.	.	.	.
8e	a	.	.	.	.	.	.
8g#	string	.	.	.	D	.	.
16g#	you	.	.	.	.	.	.
[16b	know	.	.	.	.	.	.
4b]	_	.	.	.	.	.	.
=17	=17	=17	=17	=17	=17	=17	=17
*>Letter>D	*>Letter>D	*>Letter>D	*>Letter>D	*>Letter>D	*>Letter>D	*>Letter>D	*>Letter>D
*>Label>Chorus	*>Label>Chorus	*>Label>Chorus	*>Label>Chorus	*>Label>Chorus	*>Label>Chorus	*>Label>Chorus	*>Label>Chorus
*F#:	*	*F#:	*F#:	*F#:	*	*F#:	*F#:
8r	.	2F#M	newline	voice	.	40.844	F#:maj
8a#	You	.	.	.	.	.	.
8a#	make	.	.	.	.	.	.
8a#	me	.	.	.	.	.	.
8.a#	feel	2D#mm	.	voice	.	42.086	D#:min7
[16a#	like	.	.	.	.	.	.
8a#]	_	.	.	.	.	.	.
[8a#	dan-	.	.	.	.	.	.
=18	=18	=18	=18	=18	=18	=18	=18
8a#]	_	2G#mm	.	voice	.	43.328	G#:min7
8.g#	-cin'	.	.	.	.	.	.
16c#	I'm	.	.	.	.	.	.
16d#	gon-	.	.	.	.	.	.
16c#	-na	.	.	.	.	.	.
8f#	dance	2C#Mm	.	voice	.	44.571	C#:7
16d#	the	.	.	.	.	.	.
[16f#	night	.	.	.	.	.	.
16f#]	_	.	.	.	.	.	.
16f#	a-	.	.	.	.	.	.
8c#	-way	.	.	.	.	.	.
=19	=19	=19	=19	=19	=19	=19	=19
8r	.	2F#M	.	voice	.	45.813	F#:maj
8a#	You	.	.	.	.	.	.
8cc#	make	.	.	.	.	.	.
8a#	me	.	.	.	.	.	.
8.cc#	feel	2D#mm	.	voice	.	47.055	D#:min7
[16dd#	like	.	.	.	.	.	.
8dd#]	_	.	.	.	.	.	.
8a	dan-	.	.	.	.	.	.
=20	=20	=20	=20	=20	=20	=20	=20
8g#	_	2G#mm	.	voice	.	48.298	G#:min7
8.f#	-cin'	.	.	.	.	.	.
16c#	I'm	.	.	.	.	.	.
16d#	gon-	.	.	.	.	.	.
16c#	-na	.	.	.	.	.	.
8f#	dance	2C#Mm	.	voice	.	49.54	C#:7
16d#	the	.	.	.	.	.	.
[16f#	night	.	.	.	.	.	.
16f#]	_	.	.	.	.	.	.
16f#	a-	.	.	.	.	.	.
8c#	-way	.	.	.	.	.	.
=21	=21	=21	=21	=21	=21	=21	=21
*F#:	*	*	*	*	*	*	*
8r	.	2F#M	newline	voice	.	50.782	F#:maj
8a#	You	.	.	.	.	.	.
8a#	make	.	.	.	.	.	.
8a#	me	.	.	.	.	.	.
8.a#	feel	2D#mm	.	voice	.	52.024	D#:min7
[16a#	like	.	.	.	.	.	.
8a#]	_	.	.	.	.	.	.
[8a#	dan-	.	.	.	.	.	.
=22	=22	=22	=22	=22	=22	=22	=22
8a#]	_	2G#mm	.	voice	.	53.267	G#:min7
4.g#	-cin'	.	.	.	.	.	.
8r	.	2C#Mm	.	voice	.	54.509	C#:7
16d#	I	.	.	.	.	.	.
[16f#	feel	.	.	.	.	.	.
16f#]	_	.	.	.	.	.	.
8.f#	like	.	.	.	.	.	.
=23	=23	=23	=23	=23	=23	=23	=23
*E:	*	*E:	*E:	*E:	*	*E:	*E:
16a	dan-	1F#mm	newline	voice	.	55.751	F#:min7
8g#	_	.	.	.	.	.	.
16f#	-cin'	.	.	.	.	.	.
4r	.	.	.	.	.	.	.
16a	dan-	.	.	.	.	.	.
8g#	_	.	.	.	.	.	.
16f#	-cin'	.	.	.	.	.	.
4r	.	.	.	.	.	.	.
=24	=24	=24	=24	=24	=24	=24	=24
8e	dance	1F#mm	.	voice	.	58.195	F#:min7
16f#	the	.	.	.	.	.	.
[16f#	night	.	.	.	.	.	.
16f#]	_	.	.	.	.	.	.
16e	a-	.	.	.	.	.	.
8f#	-way	.	.	.	.	.	.
8r	.	.	.	.	.	.	.
8f#	I	.	.	.	.	.	.
8f#	feel	.	.	.	.	.	.
8f#	like	.	.	.	.	.	.
=25	=25	=25	=25	=25	=25	=25	=25
16a	dan-	1BM	.	voice	.	60.639	B:sus4(b7,9)
8g#	_	.	.	.	.	.	.
16f#	-cin'	.	.	.	.	.	.
4r	.	.	.	.	.	.	.
16r	.	.	.	.	.	.	.
16a	dan-	.	.	.	.	.	.
8g#	_	.	.	.	.	.	.
8.f#	-cin'	.	.	.	.	.	.
[16b	ah	.	.	.	.	.	.
=26	=26	=26	=26	=26	=26	=26	=26
4b_	_	1BM	.	voice	.	63.083	B:sus4(b7,9)
16b]	_	.	.	.	.	.	.
16cc#	_	.	.	.	.	.	.
8b	_	.	.	.	.	.	.
16cc#	_	.	.	.	.	.	.
[8.b	_	.	.	.	.	.	.
8b]	_	.	.	.	.	.	.
8r	.	.	.	.	.	.	.
=27	=27	=27	=27	=27	=27	=27	=27
*>Letter>B	*>Letter>B	*>Letter>B	*>Letter>B	*>Letter>B	*>Letter>B	*>Letter>B	*>Letter>B
*>Label>Verse	*>Label>Verse	*>Label>Verse	*>Label>Verse	*>Label>Verse	*>Label>Verse	*>Label>Verse	*>Label>Verse
8r	.	2EM	newline	voice	.	65.527	E:maj
8ee	Quar-	.	.	.	E	.	.
8cc#	-ter	.	.	.	.	.	.
8b	to	.	.	.	.	.	.
8g#	four	2C#mm	.	voice	E	66.781	C#:min7
8b	in	.	.	.	.	.	.
8cc#	the	.	.	.	.	.	.
8g	mor-	.	.	.	E	.	.
=28	=28	=28	=28	=28	=28	=28	=28
8f#	_	2F#mm	.	voice	.	68.034	F#:min9
4.e	-ning	.	.	.	.	.	.
2r	.	2BMm	.	voice	.	69.288	B:maj6(b7)
=29	=29	=29	=29	=29	=29	=29	=29
16r	.	2EM	.	voice	.	70.542	E:maj
16b	I	.	.	.	.	.	.
8ee	ain't	.	.	.	.	.	.
16cc#	feel-	.	.	.	.	.	.
8b	-ing	.	.	.	.	.	.
[16ee	tired	.	.	.	.	.	.
8ee]	_	2C#mm	.	voice	.	71.796	C#:min7
8cc#	no	.	.	.	F	.	.
8b	no	.	.	.	F	.	.
8g#	no	.	.	.	F	.	.
=30	=30	=30	=30	=30	=30	=30	=30
8f#	no	2F#mm	.	voice	F	73.05	F#:min9
8e	no	.	.	.	F	.	.
4r	.	.	.	.	.	.	.
2r	.	2BMm	.	voice	.	74.304	B:maj6(b7)
=31	=31	=31	=31	=31	=31	=31	=31
8r	.	2EM	newline	voice	.	75.558	E:maj
8b	just	.	.	.	.	.	.
8ee	hold	.	.	.	.	.	.
16b	me	.	.	.	.	.	.
[16ee	tight	.	.	.	G	.	.
8ee]	_	2C#mm	.	voice	.	76.812	C#:min7
8r	.	.	.	.	.	.	.
16r	.	.	.	.	.	.	.
16b	and	.	.	.	.	.	.
16a	leave	.	.	.	.	.	.
[16b	on	.	.	.	.	.	.
=32	=32	=32	=32	=32	=32	=32	=32
16b]	_	2F#mm	.	voice	.	78.065	F#:min9
8a	the	.	.	.	.	.	.
8g#	light	.	.	.	G	.	.
8e	_	.	.	.	.	.	.
16r	.	.	.	.	.	.	.
4r	.	2BMm	.	voice	.	79.319	B:maj6(b7)
4r	.	.	.	.	.	.	.
=33	=33	=33	=33	=33	=33	=33	=33
8r	.	2EM	.	voice	.	80.573	E:maj
16g#	'cause	.	.	.	.	.	.
8b	I	.	.	.	.	.	.
8g#	don't	.	.	.	.	.	.
8.cc#	wan-	.	.	.	.	.	.
.	.	2C#mm	.	voice	.	81.827	C#:min7
8ee	-na	.	.	.	.	.	.
8.cc#	go	.	.	.	.	.	.
[16cc#	home	.	.	.	F	.	.
=34	=34	=34	=34	=34	=34	=34	=34
8cc#]	_	2F#mm	.	voice	.	83.081	F#:min9
16dd#	_	.	.	.	.	.	.
16cc#	_	.	.	.	.	.	.
4b	_	.	.	.	.	.	.
4r	.	2BMm	.	voice	.	84.335	B:maj6(b7)
4r	.	.	.	.	.	.	.
=35	=35	=35	=35	=35	=35	=35	=35
*>Letter>C	*>Letter>C	*>Letter>C	*>Letter>C	*>Letter>C	*>Letter>C	*>Letter>C	*>Letter>C
*>Label>Prechorus	*>Label>Prechorus	*>Label>Prechorus	*>Label>Prechorus	*>Label>Prechorus	*>Label>Prechorus	*>Label>Prechorus	*>Label>Prechorus
8r	.	1DM	newline	voice	.	85.589	D:maj
16r	.	.	.	.	.	.	.
16d	You	.	.	.	.	.	.
16d	put	.	.	.	.	.	.
8d	a	.	.	.	.	.	.
[16f#	spell	.	.	.	.	.	.
16f#]	_	.	.	.	.	.	.
16f#	on	.	.	.	.	.	.
4a	me	.	.	.	B	.	.
16r	.	.	.	.	.	.	.
16d	I'm	.	.	.	.	.	.
=36	=36	=36	=36	=36	=36	=36	=36
8e	right	1EM	.	voice	.	88.073	E:maj
8e	where	.	.	.	.	.	.
8e	you	.	.	.	.	.	.
8e	want	.	.	.	.	.	.
8g#	me	.	.	.	.	.	.
16g#	to	.	.	.	.	.	.
[16b	be	.	.	.	B	.	.
4b]	_	.	.	.	.	.	.
=37	=37	=37	=37	=37	=37	=37	=37
*>Letter>D	*>Letter>D	*>Letter>D	*>Letter>D	*>Letter>D	*>Letter>D	*>Letter>D	*>Letter>D
*>Label>Chorus	*>Label>Chorus	*>Label>Chorus	*>Label>Chorus	*>Label>Chorus	*>Label>Chorus	*>Label>Chorus	*>Label>Chorus
*F#:	*	*F#:	*F#:	*F#:	*	*F#:	*F#:
8r	.	2F#M	newline	voice	.	90.558	F#:maj
8a#	You	.	.	.	.	.	.
8a#	make	.	.	.	.	.	.
8a#	me	.	.	.	.	.	.
8.a#	feel	2D#mm	.	voice	.	91.82	D#:min7
[16a#	like	.	.	.	.	.	.
8a#]	_	.	.	.	.	.	.
[8a#	dan-	.	.	.	.	.	.
=38	=38	=38	=38	=38	=38	=38	=38
8a#]	_	2G#mm	.	voice	.	93.083	G#:min7
8.g#	-cin'	.	.	.	.	.	.
16c#	I'm	.	.	.	.	.	.
16d#	gon-	.	.	.	.	.	.
16c#	-na	.	.	.	.	.	.
8f#	dance	2C#Mm	.	voice	.	94.346	C#:7
16d#	the	.	.	.	.	.	.
[16f#	night	.	.	.	.	.	.
16f#]	_	.	.	.	.	.	.
16f#	a-	.	.	.	.	.	.
8c#	-way	.	.	.	.	.	.
=39	=39	=39	=39	=39	=39	=39	=39
8r	.	2F#M	.	voice	.	95.608	F#:maj
8a#	you	.	.	.	.	.	.
8a#	make	.	.	.	.	.	.
8a#	me	.	.	.	.	.	.
8.cc#	feel	2D#mm	.	voice	.	96.871	D#:min7
[16a#	like	.	.	.	.	.	.
8a#]	_	.	.	.	.	.	.
[8a#	dan-	.	.	.	.	.	.
=40	=40	=40	=40	=40	=40	=40	=40
8a#]	_	2G#mm	.	voice	.	98.133	G#:min7
8.g#	-cin'	.	.	.	.	.	.
16c#	I'm	.	.	.	.	.	.
16d#	gon-	.	.	.	.	.	.
16c#	-na	.	.	.	.	.	.
8f#	dance	2C#Mm	.	voice	.	99.396	C#:7
16d#	the	.	.	.	.	.	.
[16f#	night	.	.	.	.	.	.
16f#]	_	.	.	.	.	.	.
16f#	a-	.	.	.	.	.	.
8c#	-way	.	.	.	.	.	.
=41	=41	=41	=41	=41	=41	=41	=41
8r	.	2F#M	newline	voice	.	100.659	F#:maj
8a#	You	.	.	.	.	.	.
8a#	make	.	.	.	.	.	.
8a#	me	.	.	.	.	.	.
8.cc#	feel	2D#mm	.	voice	.	101.892	D#:min7
[16dd#	like	.	.	.	.	.	.
8dd#]	_	.	.	.	.	.	.
[8dd#	dan-	.	.	.	.	.	.
=42	=42	=42	=42	=42	=42	=42	=42
8dd#]	_	2G#mm	.	voice	.	103.125	G#:min7
4.cc#	-cin	.	.	.	.	.	.
8r	.	2C#Mm	.	voice	.	104.358	C#:7
16d#	I	.	.	.	.	.	.
[16f#	feel	.	.	.	.	.	.
16f#]	_	.	.	.	.	.	.
8.f#	like	.	.	.	.	.	.
=43	=43	=43	=43	=43	=43	=43	=43
*E:	*	*E:	*E:	*E:	*	*E:	*E:
16a	dan-	1F#mm	newline	voice	.	105.591	F#:min7
8g#	_	.	.	.	.	.	.
16f#	-cin	.	.	.	.	.	.
4r	.	.	.	.	.	.	.
16a	dan-	.	.	.	.	.	.
8g#	_	.	.	.	.	.	.
16f#	-cin'	.	.	.	.	.	.
4r	.	.	.	.	.	.	.
=44	=44	=44	=44	=44	=44	=44	=44
8e	dance	1F#mm	.	voice	.	108.023	F#:min7
16f#	the	.	.	.	.	.	.
[16f#	night	.	.	.	.	.	.
16f#]	_	.	.	.	.	.	.
16e	a-	.	.	.	.	.	.
8f#	-way	.	.	.	.	.	.
8r	.	.	.	.	.	.	.
8f#	I	.	.	.	.	.	.
8f#	feel	.	.	.	.	.	.
8f#	like	.	.	.	.	.	.
=45	=45	=45	=45	=45	=45	=45	=45
16a	dan-	1BMm	.	voice	.	110.456	B:sus4(b7,9)
8g#	_	.	.	.	.	.	.
16f#	-cin'	.	.	.	.	.	.
4r	.	.	.	.	.	.	.
16a	dan-	.	.	.	.	.	.
8g#	_	.	.	.	.	.	.
16f#	-cin'	.	.	.	.	.	.
4r	.	.	.	.	.	.	.
=46	=46	=46	=46	=46	=46	=46	=46
8e	dance	1BMm	.	voice	.	112.888	B:sus4(b7,9)
16f#	the	.	.	.	.	.	.
[16f#	night	.	.	.	.	.	.
16f#]	_	.	.	.	.	.	.
16e	a-	.	.	.	.	.	.
8f#	-way	.	.	.	.	.	.
8r	.	.	.	.	.	.	.
8b	I	.	.	.	.	.	.
8b	feel	.	.	.	.	.	.
8f#	like	.	.	.	.	.	.
=47	=47	=47	=47	=47	=47	=47	=47
16a	dan-	1F#mm	newline	voice	.	115.32	F#:min7
8g#	_	.	.	.	.	.	.
16f#	-cin	.	.	.	.	.	.
4r	.	.	.	.	.	.	.
16a	dan-	.	.	.	.	.	.
8g#	_	.	.	.	.	.	.
16f#	-cin'	.	.	.	.	.	.
4r	.	.	.	.	.	.	.
=48	=48	=48	=48	=48	=48	=48	=48
8e	dance	1F#mm	.	voice	.	117.747	F#:min7
16f#	the	.	.	.	.	.	.
[16f#	night	.	.	.	.	.	.
16f#]	_	.	.	.	.	.	.
16e	a-	.	.	.	.	.	.
8f#	-way	.	.	.	.	.	.
8r	.	.	.	.	.	.	.
8f#	I	.	.	.	.	.	.
8f#	feel	.	.	.	.	.	.
8f#	like	.	.	.	.	.	.
=49	=49	=49	=49	=49	=49	=49	=49
16a	dan-	1BMm	.	voice	.	120.174	B:sus4(b7,9)
8g#	_	.	.	.	.	.	.
16f#	-cin'	.	.	.	.	.	.
4r	.	.	.	.	.	.	.
16a	dan-	.	.	.	.	.	.
8g#	_	.	.	.	.	.	.
16f#	-cin'	.	.	.	.	.	.
8r	.	.	.	.	.	.	.
[8b	ah	.	.	.	.	.	.
=50	=50	=50	=50	=50	=50	=50	=50
4b]	_	1BMm	.	voice	.	122.601	B:sus4(b7,9)
16cc#	_	.	.	.	.	.	.
16b	_	.	.	.	.	.	.
8cc#	_	.	.	.	.	.	.
2b	_	.	.	.	.	.	.
=51	=51	=51	=51	=51	=51	=51	=51
*>Letter>B	*>Letter>B	*>Letter>B	*>Letter>B	*>Letter>B	*>Letter>B	*>Letter>B	*>Letter>B
*>Label>Instrumental	*>Label>Instrumental	*>Label>Instrumental	*>Label>Instrumental	*>Label>Instrumental	*>Label>Instrumental	*>Label>Instrumental	*>Label>Instrumental
1r	.	2EM	newline	voice	.	125.028	E:maj
.	.	2C#mm	.	voice	.	126.278	C#:min7
=52	=52	=52	=52	=52	=52	=52	=52
1r	.	2F#mm	.	voice	.	127.527	F#:min9
.	.	2BMm	.	voice	.	128.777	B:maj6(b7)
=53	=53	=53	=53	=53	=53	=53	=53
1r	.	2EM	.	voice	.	130.026	E:maj
.	.	2C#mm	.	voice	.	131.276	C#:min7
=54	=54	=54	=54	=54	=54	=54	=54
1r	.	2F#mm	.	voice	.	132.525	F#:min9
.	.	2BMm	.	voice	.	133.775	B:maj6(b7)
=55	=55	=55	=55	=55	=55	=55	=55
1r	.	2EM	newline	voice	.	135.024	E:maj
.	.	2C#mm	.	voice	.	136.255	C#:min7
=56	=56	=56	=56	=56	=56	=56	=56
1r	.	2F#mm	.	voice	.	137.485	F#:min9
.	.	2BMm	.	voice	.	138.716	B:maj6(b7)
=57	=57	=57	=57	=57	=57	=57	=57
*>Letter>C	*>Letter>C	*>Letter>C	*>Letter>C	*>Letter>C	*>Letter>C	*>Letter>C	*>Letter>C
*>Label>Prechorus	*>Label>Prechorus	*>Label>Prechorus	*>Label>Prechorus	*>Label>Prechorus	*>Label>Prechorus	*>Label>Prechorus	*>Label>Prechorus
8r	.	1DM	newline	voice	.	139.947	D:maj
8d	and	.	.	.	.	.	.
8d	if	.	.	.	.	.	.
8e	you'll	.	.	.	.	.	.
8f#	let	.	.	.	.	.	.
8f#	me	.	.	.	.	.	.
4a	stay	.	.	.	H	.	.
=58	=58	=58	=58	=58	=58	=58	=58
8r	.	1EM	.	voice	.	142.473	E:maj
8e	we'll	.	.	.	.	.	.
8e	dance	.	.	.	.	.	.
8f#	our	.	.	.	.	.	.
8g#	lives	.	.	.	.	.	.
16g#	a-	.	.	.	.	.	.
[16b	-way	.	.	.	H	.	.
4b]	_	.	.	.	.	.	.
=59	=59	=59	=59	=59	=59	=59	=59
*>Letter>D	*>Letter>D	*>Letter>D	*>Letter>D	*>Letter>D	*>Letter>D	*>Letter>D	*>Letter>D
*>Label>Chorus	*>Label>Chorus	*>Label>Chorus	*>Label>Chorus	*>Label>Chorus	*>Label>Chorus	*>Label>Chorus	*>Label>Chorus
*F#:	*	*F#:	*F#:	*F#:	*	*F#:	*F#:
8r	.	2F#M	newline	voice	.	145	F#:maj
8a#	You	.	.	.	.	.	.
8a#	make	.	.	.	.	.	.
8a#	me	.	.	.	.	.	.
8.a#	feel	2D#mm	.	voice	.	146.24	D#:min7
8.a#	like	.	.	.	.	.	.
[8a#	dan-	.	.	.	.	.	.
=60	=60	=60	=60	=60	=60	=60	=60
8a#]	_	2G#mm	.	voice	.	147.481	G#:min7
8.g#	-cin'	.	.	.	.	.	.
16c#	I	.	.	.	.	.	.
16d#	wan-	.	.	.	.	.	.
16c#	-na	.	.	.	.	.	.
8f#	dance	2C#Mm	.	voice	.	148.722	C#:7
16d#	my	.	.	.	.	.	.
[16f#	life	.	.	.	.	.	.
16f#]	_	.	.	.	.	.	.
16f#	a-	.	.	.	.	.	.
8c#	-way	.	.	.	.	.	.
=61	=61	=61	=61	=61	=61	=61	=61
8r	.	2F#M	.	voice	.	149.962	F#:maj
8a#	you	.	.	.	.	.	.
8cc#	make	.	.	.	.	.	.
8a#	me	.	.	.	.	.	.
8.cc#	feel	2D#mm	.	voice	.	151.203	D#:min7
[16dd#	like	.	.	.	.	.	.
8dd#]	_	.	.	.	.	.	.
8a#	dan-	.	.	.	.	.	.
=62	=62	=62	=62	=62	=62	=62	=62
8g#	_	2G#mm	.	voice	.	152.444	G#:min7
8.f#	-cin'	.	.	.	.	.	.
16c#	I	.	.	.	.	.	.
16d#	wan-	.	.	.	.	.	.
16c#	-na	.	.	.	.	.	.
8f#	dance	2C#Mm	.	voice	.	153.685	C#:7
16d#	my	.	.	.	.	.	.
[16f#	life	.	.	.	.	.	.
16f#]	_	.	.	.	.	.	.
16f#	a-	.	.	.	.	.	.
8c#	-way	.	.	.	.	.	.
=63	=63	=63	=63	=63	=63	=63	=63
*>Label>>Fadeout	*>Label>>Fadeout	*>Label>>Fadeout	*>Label>>Fadeout	*>Label>>Fadeout	*>Label>>Fadeout	*>Label>>Fadeout	*>Label>>Fadeout
8r	.	2F#M	newline	voice	.	154.925	F#:maj
8a#	you	.	.	.	.	.	.
8cc#	make	.	.	.	.	.	.
8a#	me	.	.	.	.	.	.
8.cc#	feel	2D#mm	.	voice	.	156.173	D#:min7
[16cc#	like	.	.	.	.	.	.
8cc#]	_	.	.	.	.	.	.
[8dd#	dan-	.	.	.	.	.	.
=64	=64	=64	=64	=64	=64	=64	=64
8dd#]	_	2G#mm	.	voice	.	157.42	G#:min7
8.cc#	-cin'	.	.	.	.	.	.
16c#	I'm	.	.	.	.	.	.
16d#	gon	.	.	.	.	.	.
16c#	na	.	.	.	.	.	.
8f#	dance	2C#Mm	.	voice	.	158.668	C#:7
16d#	my	.	.	.	.	.	.
[16f#	life	.	.	.	.	.	.
16f#]	_	.	.	.	.	.	.
16f#	a	.	.	.	.	.	.
8c#	way	.	.	.	.	.	.
=65	=65	=65	=65	=65	=65	=65	=65
8r	.	2F#M	.	voice	.	159.915	F#:maj
8cc#	you	.	.	.	.	.	.
8cc#	make	.	.	.	.	.	.
8dd#	me	.	.	.	.	.	.
8.ff#	feel	2D#mm	.	voice	.	161.163	D#:min7
[16dd#	like	.	.	.	.	.	.
8dd#]	_	.	.	.	.	.	.
[8dd#	dan-	.	.	.	.	.	.
=66	=66	=66	=66	=66	=66	=66	=66
8dd#]	_	2G#mm	.	voice	.	162.411	G#:min7
8.cc#	-cin'	.	.	.	.	.	.
16c#	I'm	.	.	.	.	.	.
16d#	gon	.	.	.	.	.	.
16c#	na	.	.	.	.	.	.
8f#	dance	2C#Mm	.	voice	.	163.658	C#:7
16d#	my	.	.	.	.	.	.
[16f#	life	.	.	.	.	.	.
16f#]	_	.	.	.	.	.	.
16f#	a-	.	.	.	.	.	.
8c#	-way	.	.	.	.	.	.
=67	=67	=67	=67	=67	=67	=67	=67
8r	.	2F#M	newline	voice	.	164.906	F#:maj
8a#	You	.	.	.	.	.	.
8a#	make	.	.	.	.	.	.
8a#	me	.	.	.	.	.	.
8.a#	feel	2D#mm	.	voice	.	165.603	D#:min7
[16a#	like	.	.	.	.	.	.
8a#]	_	.	.	.	.	.	.
[8a#	dan-	.	.	.	.	.	.
=68	=68	=68	=68	=68	=68	=68	=68
8a#]	_	2G#mm	.	voice	.	166.299	G#:min7
8.g#	-cin'	.	.	.	.	.	.
16c#	I	.	.	.	.	.	.
16d#	wan-	.	.	.	.	.	.
16c#	-na	.	.	.	.	.	.
8f#	dance	2C#Mm	.	voice	.	166.996	C#:7
16d#	my	.	.	.	.	.	.
[16f#	life	.	.	.	.	.	.
16f#]	_	.	.	.	.	.	.
16f#	a-	.	.	.	.	.	.
8c#	-way	.	.	.	.	.	.
r;	.	1r;	.	r	.	170.481	N.C.
r;	.	1r;	.	r	.	174.341	N.C.
*-	*-	*-	*-	*-	*-	*-	*-
!!!BillboardChartDate: 1977/01/22
!!!BillboardPeak: 1
!!!BillboardWeeksOnChart: 21
!!!COC: Leo Sayer
!!!EMD: Changed stuff written in Gb to F# (closer to E Major). Cut off two measures at end. -Nat
!!!ENC: Nathaniel Condit-Schultz
!!!EST: Awating manual error checking and editing.
!!!OTL: You Make Me Feel Like Dancing
!!!RDF**chordsym: original McGill chord annotation + (implied pitch class set, with bass pitch in first position)
!!!RDF**harmony: **recip + pitch class of root + harmonic quality
!!!RDF**leadinstrument: original McGill primary instrumentation annotation
!!!RDF**phrase: newline = linebreak in original McGill transcription
!!!RDF**timestamp: McGill audio timestamp in seconds
!!!RDT: 2017/01/12/
!!!SampleActualRank: 3
!!!SampleID#: 0986
!!!SampleTargetRank: 3
